X: 107101
Q: "Strathspey."
M: C
L: 1/16
K: A
vEA,3 vA,3uB, vC3vB,uA,3uA | EA,3 A,3C B,3A,G,3B, |\
EA,3 A,3B, C3DE3C | B,D3 G3E DCB,A, G,2B,2 :|\
c3eA3e ce3 dcBA | c3eA3e dcBA GB3 |
c3eA3e B3eA3^f | g3g ag^fe dcBA GB3 |\
c3eA3e c3e dcBA | c3eA3e dcBA GB3 |\
ce3 Bd3 AB3 EA3 | G3A GE3 DCB,A, G,B,3 |]


